packages/sights/assets/overlays/eWZsEThb.svg

<svg width="500" height="375" viewBox="0 0 500 375" fill="none" xmlns="http://www.w3.org/2000/svg">
<path d="M248.08 323.91L254.81 323.34L296.7 327.77" stroke="white" stroke-miterlimit="10"/>
<path d="M7 312.79L220.26 326.25L248.08 323.91" stroke="white" stroke-miterlimit="10"/>
<path d="M292.57 330.68L455.07 325.33" stroke="white" stroke-miterlimit="10"/>
<path d="M403.4 314.02L484.4 310.65C484.4 310.65 493.26 278.86 487.76 266.93C487.76 266.93 476.76 208.54 487.45 217.41C487.45 217.41 489.99 217.6 492.98 228.03" stroke="white" stroke-miterlimit="10"/>
<path d="M452.04 312C452.04 312 463.94 357.66 478.04 371" stroke="white" stroke-miterlimit="10"/>
<path d="M220.26 326.25C220.26 326.25 221.18 360.49 246.1 366.76H271.04C271.04 366.76 289.85 364.66 292.6 327.34" stroke="white" stroke-miterlimit="10"/>
<path d="M288.74 326.93C288.74 327.14 288.74 327.34 288.74 327.55C288.74 343.46 279.63 356.36 268.41 356.36C257.19 356.36 248.04 343.46 248.04 327.55C248.04 326.31 248.1 325.09 248.21 323.89" stroke="white" stroke-miterlimit="10"/>
<path d="M288.74 326.57V326.93" stroke="white" stroke-miterlimit="10"/>
<path d="M73.5099 4C73.5099 4 59.3099 103.52 33.1499 150.3L484.42 310.65" stroke="white" stroke-miterlimit="10"/>
<path d="M207.19 6.5L487.78 266.93" stroke="white" stroke-miterlimit="10"/>
<path d="M344.35 7.2998L366.59 38.0498" stroke="white" stroke-miterlimit="10"/>
<path d="M360.82 37.2502C360.82 37.2502 377.1 36.1102 391.82 61.1002C391.82 61.1002 398.7 75.1002 392.97 84.9502L386.73 77.8702C386.73 77.8702 392.73 75.3502 391.55 69.3802C391.55 69.3802 383.98 55.8602 381.92 55.6302H378.04L373.66 57.8702L363.8 44.1102C363.8 44.1102 360.25 38.9702 360.82 37.2502Z" stroke="white" stroke-miterlimit="10"/>
<path d="M378.01 55.6001L386.05 67.6001" stroke="white" stroke-miterlimit="10"/>
<path d="M389.18 66.4502L382.03 68.6702L381.16 71.1902L386.73 77.8402" stroke="white" stroke-miterlimit="10"/>
<path d="M394.68 80.46L409.59 103.37C409.59 103.37 452.31 170.02 456.59 181.94L463.78 186.07L480.9 202.87L489.8 219.87" stroke="white" stroke-miterlimit="10"/>
<path d="M409.59 103.37V96.5299L419.75 86.8698C419.75 86.8698 442.57 74.8698 450.25 75.0598L453.04 76.9199C453.04 76.9199 456.94 88.3898 453.84 93.5498C453.84 93.5498 451.78 106.39 435.96 120.03L426.04 129.34" stroke="white" stroke-miterlimit="10"/>
<path d="M412.53 97.56V100.31L418.61 114.76L420.79 116.25L450.14 94.35L451.74 91.14V79.79L450.36 77.79C450.36 77.79 419.29 86.67 412.53 97.56Z" stroke="white" stroke-miterlimit="10"/>
<path d="M351.35 16.98C351.35 16.98 370.67 59.65 378.04 132.41L401.59 166.35V173.35C403.372 178.833 404.578 184.487 405.19 190.22" stroke="white" stroke-miterlimit="10"/>
</svg>

<svg width="500" height="375" fill="none" xmlns="http://www.w3.org/2000/svg"><path d="m248.08 323.91 6.73-.57 41.89 4.43M7 312.79l213.26 13.46 27.82-2.34M292.57 330.68l162.5-5.35M403.4 314.02l81-3.37s8.86-31.79 3.36-43.72c0 0-11-58.39-.31-49.52 0 0 2.54.19 5.53 10.62M452.04 312s11.9 45.66 26 59" stroke="#fff" stroke-miterlimit="10"/><path d="M220.26 326.25s.92 34.24 25.84 40.51h24.94s18.81-2.1 21.56-39.42" stroke="#fff" stroke-miterlimit="10"/><path d="M288.74 326.93v.62c0 15.91-9.11 28.81-20.33 28.81-11.22 0-20.37-12.9-20.37-28.81 0-1.24.06-2.46.17-3.66M288.74 326.57v.36M73.51 4s-14.2 99.52-40.36 146.3l451.27 160.35M207.19 6.5l280.59 260.43M344.35 7.3l22.24 30.75M360.82 37.25s16.28-1.14 31 23.85c0 0 6.88 14 1.15 23.85l-6.24-7.08s6-2.52 4.82-8.49c0 0-7.57-13.52-9.63-13.75h-3.88l-4.38 2.24-9.86-13.76s-3.55-5.14-2.98-6.86ZM378.01 55.6l8.04 12" stroke="#fff" stroke-miterlimit="10"/><path d="m389.18 66.45-7.15 2.22-.87 2.52 5.57 6.65M394.68 80.46l14.91 22.91s42.72 66.65 47 78.57l7.19 4.13 17.12 16.8 8.9 17" stroke="#fff" stroke-miterlimit="10"/><path d="M409.59 103.37v-6.84l10.16-9.66s22.82-12 30.5-11.81l2.79 1.86s3.9 11.47.8 16.63c0 0-2.06 12.84-17.88 26.48l-9.92 9.31" stroke="#fff" stroke-miterlimit="10"/><path d="M412.53 97.56v2.75l6.08 14.45 2.18 1.49 29.35-21.9 1.6-3.21V79.79l-1.38-2s-31.07 8.88-37.83 19.77ZM351.35 16.98s19.32 42.67 26.69 115.43l23.55 33.94v7a83.127 83.127 0 0 1 3.6 16.87" stroke="#fff" stroke-miterlimit="10"/></svg>
